public/static/img/user/delete_white.svg

<svg width="16" height="15" viewBox="0 0 16 15" fill="none" xmlns="http://www.w3.org/2000/svg"><path d="M12.2177 3.44727H3.78535C3.68437 3.44727 3.5918 3.52932 3.5918 3.63598V12.317C3.5918 12.8832 4.06307 13.3427 4.64374 13.3427H11.3677C11.6454 13.3427 11.9063 13.236 12.0999 13.0473C12.2934 12.8585 12.4028 12.596 12.4028 12.3252V3.62778C12.4113 3.52932 12.3271 3.44727 12.2177 3.44727ZM6.31001 10.5611C6.31001 10.6596 6.26793 10.758 6.20061 10.8237C6.12487 10.8975 6.0323 10.9303 5.93131 10.9303C5.72092 10.9303 5.55261 10.7662 5.55261 10.5611V5.99906C5.55261 5.79393 5.72092 5.62983 5.93131 5.62983C6.1417 5.62983 6.31001 5.79393 6.31001 5.99906V10.5611ZM8.38023 10.5611C8.38023 10.7662 8.21192 10.9303 8.00153 10.9303C7.79114 10.9303 7.62283 10.7662 7.62283 10.5611V5.99906C7.62283 5.79393 7.79114 5.62983 8.00153 5.62983C8.21192 5.62983 8.38023 5.79393 8.38023 5.99906V10.5611ZM10.4589 10.5611C10.4589 10.7662 10.2905 10.9303 10.0802 10.9303C9.86977 10.9303 9.70146 10.7662 9.69305 10.5529V5.99906C9.69305 5.79393 9.86136 5.62983 10.0802 5.62983C10.2905 5.62983 10.4589 5.79393 10.4589 5.99906V10.5611Z" fill="white"/><path d="M13.8404 3.06837H11.0717V2.33811C11.0717 1.8376 10.6509 1.43555 10.146 1.43555H5.87932C5.36597 1.43555 4.95361 1.8458 4.95361 2.33811V3.06837H2.15966C1.92403 3.06837 1.73047 3.25709 1.73047 3.48683C1.73047 3.71657 1.92403 3.90529 2.15966 3.90529H13.8404C14.076 3.90529 14.2696 3.71657 14.2696 3.48683C14.2696 3.25709 14.076 3.06837 13.8404 3.06837ZM10.2133 3.06837H5.81199V2.26426H10.2133V3.06837Z" fill="white"/></svg>

<svg width="16" height="15" fill="none" xmlns="http://www.w3.org/2000/svg"><path d="M12.218 3.447H3.785a.193.193 0 0 0-.193.189v8.681a1.04 1.04 0 0 0 1.052 1.026h6.724c.277 0 .538-.107.732-.296.193-.189.303-.451.303-.722V3.628c.008-.099-.076-.18-.185-.18ZM6.31 10.561a.375.375 0 0 1-.11.263.373.373 0 0 1-.269.106.372.372 0 0 1-.378-.369V6c0-.205.168-.37.378-.37s.379.165.379.37v4.562Zm2.07 0c0 .205-.168.37-.378.37a.372.372 0 0 1-.38-.37V6c0-.205.17-.37.38-.37s.378.165.378.37v4.562Zm2.079 0c0 .205-.168.37-.379.37a.387.387 0 0 1-.387-.378V5.999c0-.205.168-.37.387-.37.21 0 .379.165.379.37v4.562Z" fill="#fff"/><path d="M13.84 3.068h-2.768v-.73c0-.5-.421-.902-.926-.902H5.879a.917.917 0 0 0-.925.902v.73H2.16a.426.426 0 0 0-.43.419c0 .23.194.418.43.418h11.68c.236 0 .43-.188.43-.418a.426.426 0 0 0-.43-.419Zm-3.627 0H5.812v-.804h4.401v.804Z" fill="#fff"/></svg>
